icons/folder-functions-open.svg

<svg xmlns="http://www.w3.org/2000/svg" clip-rule="evenodd" stroke-linejoin="round" stroke-miterlimit="1.414" viewBox="0 0 24 24">
    <path d="M19 20H4a2 2 0 0 1-2-2V6c0-1.11.89-2 2-2h6l2 2h7c1.097 0 2 .903 2 2H4v10l2.14-8h17.07l-2.28 8.5c-.23.87-1.01 1.5-1.93 1.5z" fill="#ffb300"/>
    <path d="M0 0h24v24H0z" fill="none"/>
    <path fill="none" d="M-74 29h48v48h-48V29zM0 0h24v24H0V0zm0 0h24v24H0V0z"/>
    <path d="M21 9.7h-8v1.5l4.333 4.5L13 20.2v1.5h8v-2.25h-4.667l3.334-3.75-3.334-3.75H21z"/>
</svg>

<?xml version="1.0" encoding="UTF-8" standalone="no"?>
<svg xmlns:dc="http://purl.org/dc/elements/1.1/" 
  xmlns:cc="http://creativecommons.org/ns#" 
  xmlns:rdf="http://www.w3.org/1999/02/22-rdf-syntax-ns#" 
  xmlns:svg="http://www.w3.org/2000/svg" 
  xmlns="http://www.w3.org/2000/svg" 
  xmlns:sodipodi="http://sodipodi.sourceforge.net/DTD/sodipodi-0.dtd" 
  xmlns:inkscape="http://www.inkscape.org/namespaces/inkscape" clip-rule="evenodd" stroke-linejoin="round" stroke-miterlimit="1.4142" version="1.1" viewBox="0 0 24 24" xml:space="preserve" id="svg10" sodipodi:docname="folder-job-open.svg" inkscape:version="0.92.2 5c3e80d, 2017-08-06">
  <metadata id="metadata16">
    <rdf:RDF>
      <cc:Work rdf:about="">
        <dc:format>image/svg+xml</dc:format>
        <dc:type rdf:resource="http://purl.org/dc/dcmitype/StillImage" />
      </cc:Work>
    </rdf:RDF>
  </metadata>
  <defs id="defs14" />
  <sodipodi:namedview pagecolor="#ffffff" bordercolor="#666666" borderopacity="1" objecttolerance="10" gridtolerance="10" guidetolerance="10" inkscape:pageopacity="0" inkscape:pageshadow="2" inkscape:window-width="640" inkscape:window-height="480" id="namedview12" showgrid="false" inkscape:zoom="19.666667" inkscape:cx="10.022786" inkscape:cy="11.897278" inkscape:window-x="0" inkscape:window-y="0" inkscape:window-maximized="0" inkscape:current-layer="svg10" />
  <path d="m19 20h-15c-1.11 0-2-0.9-2-2v-12c0-1.11 0.89-2 2-2h6l2 2h7c1.097 0 2 0.903 2 2h-17v10l2.14-8h17.07l-2.28 8.5c-0.23 0.87-1.01 1.5-1.93 1.5z" fill="#ffb300" id="path2" />
  <path d="M0 0h24v24H0z" fill="none" id="path7" />
  <path fill="none" d="M-74 29h48v48h-48V29zM0 0h24v24H0V0zm0 0h24v24H0V0z" id="path6" />
  <path d="m 21,9.7 h -8 v 1.5 L 17.333333,15.7 13,20.2 v 1.5 h 8 V 19.45 H 16.333333 L 19.666667,15.7 16.333333,11.95 H 21 Z" id="path8" inkscape:connector-curvature="0" style="stroke-width:0.70710683" />
</svg>
